X: 12
T: Missa Ave regina celorum &mdash; Credo
C: Gaspar van Weerbeke
%%abc-version 2.0
%%abcx-abcm2ps-target-version 5.9.1 (29 Sep 2008)
%%abc-creator hum2abc beta
%%abcx-conversion-date 2022/03/06 13:06:00
%%abc-copyright Copyright 2014, Pavanello, Agnese
%%abc-edited-by Mair-Gruber, Roland
%%humdrum-veritas 1360539461
%%humdrum-veritas-data 1984728988
%%linebreak <none>
%%barnumbers 0
L: 1/4
M: 3/2
N: Derived from Gas0101c-Missa_Ave_regina_celorum-Credo.krn
%%staves [1 2 3 4]
V: 1 clef=treble-8
V: 2 clef=treble-8
V: 3 clef=bass
V: 4 clef=bass
K: F
[V:1] F4F2 | 
[V:2] F6- | 
[V:3] z6 | 
[V:4] z6 | 
[V:1] A>Bc>ABG- | 
[V:2] F2E>CDE- | 
[V:3] z6 | 
[V:4] z6 | 
[V:1] Gc2AG2 | 
[V:2] EC2F2E | 
[V:3] z6 | 
[V:4] z6 | 
[V:1] zFGGA2 | 
[V:2] F2z2F2 | 
[V:3] z6 | 
[V:4] z6 | 
[V:1] B>AF>G A/B/c | 
[V:2] GGA2A2 | 
[V:3] z6 | 
[V:4] z6 | 
[V:1] Ff2e2f | 
[V:2] A4GA | 
[V:3] z6 | 
[V:4] z6 | 
[V:1] ga2f2e | 
[V:2] Bc2AG2 | 
[V:3] z6 | 
[V:4] z6 | 
[V:1] f2a2a2 | 
[V:2] A2c>ccc | 
[V:3] F,6 | 
[V:4] F,,2>F,,2F,,F,, | 
[V:1] g2fecf- | 
[V:2] cG/A/Bc2A | 
[V:3] E,2D,E,2D,- | 
[V:4] C,2D,C,2D, | 
[V:1] fe2fg2 | 
[V:2] BGcAG2 | 
[V:3] D,C,2F,2E, | 
[V:4] B,,C,A,,F,,C,2 | 
[V:1] c2c2A2 | 
[V:2] FA>GF/ E//D//CF | 
[V:3] F,4F,2 | 
[V:4] z2F,,2F,,F,, | 
[V:1] GcdcB2 | 
[V:2] E2DzD3/E/ | 
[V:3] G,6 | 
[V:4] C,2B,,C,G,,2 | 
[V:1] A2z2c3/c/ | 
[V:2] F2c>cAF | 
[V:3] A,6- | 
[V:4] F,,2F,F,F,F, | 
[V:1] AFcAB3/G/ | 
[V:2] c>B A/G/FGE | 
[V:3] A,4G,2 | 
[V:4] F,,>F,,F,,2z2 | 
[V:1] F2f2ee | 
[V:2] F2A>Bcc | 
[V:3] A,6 | 
[V:4] F,2>D,2C,2 | 
[V:1] d>efg2f | 
[V:2] F2zGAA | 
[V:3] B,4A,2 | 
[V:4] B,,>C,D,G,,D,2 | 
[V:1] ba/gf/f2e | 
[V:2] B>c_edc2 | 
[V:3] G,B,>A,F,G,2 | 
[V:4] z_E,2F,C,2 | 
[V:1] fdcd>cA | 
[V:2] ABcFDC | 
[V:3] F,6 | 
[V:4] D,B,,A,,B,,2F,, | 
[V:1] B2Ac>BA | 
[V:2] D2C2zc | 
[V:3] F,6 | 
[V:4] B,,2F,,4 | 
[V:1] G2g2fd | 
[V:2] c>BGcAB | 
[V:3] E,4D,2 | 
[V:4] C,2zC,D,B,, | 
[V:1] ce>dc2=B | 
[V:2] GA2GG2 | 
[V:3] E,4D,2 | 
[V:4] C,A,,>B,,C,G,,2 | 
[V:1] c2GABB | 
[V:2] E2DC2B, | 
[V:3] C,2D,F,2E, | 
[V:4] zC,B,,A,,G,,2 | 
[V:1] A>Bcd>cA- | 
[V:2] Cc2B>AF- | 
[V:3] F,4z2 | 
[V:4] F,,>G,,A,,B,,>C,D,- | 
[V:1] AG/A/ B/c/d_e2 | 
[V:2] FG>FB2A | 
[V:3] z6 | 
[V:4] D,/C,<_E,D,/B,,C,2 | 
[V:1] df>ec/d/ e/f/g- | 
[V:2] B>A F/G/A/B<cB/ | 
[V:3] F,4G,2- | 
[V:4] B,,D,>E,F,C,E,- | 
[V:1] g/f/e/d<ef/g2 | 
[V:2] GG>FE/D/E2 | 
[V:3] G,2G,4 | 
[V:4] E,/D,/C,/B,,<C,B,,/G,,2 | 
[V:1] c2d2e2 | 
[V:2] F2FFG2 | 
[V:3] A,4zG, | 
[V:4] F,,2F,,2E,,2 | 
[V:1] zcd>ef3/e/ | 
[V:2] F2F4 | 
[V:3] A,2B,4 | 
[V:4] F,,2B,,>C,D,3/E,/ | 
[V:1] c>d e/f<gf/e | 
[V:2] zc2c2c | 
[V:3] A,2G,4 | 
[V:4] F,2C,2zC, | 
[V:1] dg2f2e | 
[V:2] Bc>ABc2 | 
[V:3] F,E,F,2G,2 | 
[V:4] D,C,D,2C,2 | 
[V:1] f2z2c2 | 
[V:2] A2A>GE2 | 
[V:3] F,4z2 | 
[V:4] F,,2F,,>G,,A,,2 | 
[V:1] defe2d | 
[V:2] DCFGAB | 
[V:3] z2z2F,2 | 
[V:4] B,,C,D,E,F,2 | 
[V:1] e2z2zg- | 
[V:2] c2dcAB | 
[V:3] G,>A,B,A,2G, | 
[V:4] C,2zC,2B,, | 
[V:1] gfecd2 | 
[V:2] cCB,CG2 | 
[V:3] A,2zC2B, | 
[V:4] A,,2G,,A,,G,,2 | 
[V:1] cde2c2 | 
[V:2] z6 | 
[V:3] A,F,G,2F,G, | 
[V:4] zF,,E,,2F,,E,, | 
[V:1] z2c2A2 | 
[V:2] C2CCF2 | 
[V:3] A,2F,2z2 | 
[V:4] F,,>G,,A,,2F,,2 | 
[V:1] B2A2Gc- | 
[V:2] D>EF2G2 | 
[V:3] F,2D,2E,2 | 
[V:4] B,,>C, D,/E,/F,C,2 | 
[V:1] c=Bced2 | 
[V:2] G2GcAB | 
[V:3] D,2C,2zF,- | 
[V:4] G,,2zC,D,B,, | 
[V:1] c2df2e | 
[V:2] G>ABcdc | 
[V:3] F,E,F,A,G,2 | 
[V:4] C,2B,,A,,B,,C, | 
[V:1] f2zfg3/f/ | 
[V:2] Ad>cBGA | 
[V:3] F,4z2 | 
[V:4] F,,B,,2D,C,2 | 
[V:1] d2cd2e | 
[V:2] B2cBdc- | 
[V:3] F,4G,2 | 
[V:4] B,,2A,,B,,2C, | 
[V:1] cf>ed/c/d2 | 
[V:2] cF2G>FD | 
[V:3] A,2B,4 | 
[V:4] A,,D,>C,B,,/A,,/G,,2 | 
[V:1] c>d e/f/g2f- | 
[V:2] ECG2zD- | 
[V:3] C4B,2- | 
[V:4] C,3E,>D,B,,- | 
[V:1] f/e/dc2c3/d/ | 
[V:2] DF>GA/B/c2 | 
[V:3] B,2A,4 | 
[V:4] B,,/C,/D,/E,/F,2F,,2 | 
[V:1] _e>dBf2=e | 
[V:2] c>BGdc3/B/ | 
[V:3] G,>A,B,>A, G,/F,/G, | 
[V:4] C,_E,>D,B,,C,2 | 
[V:1] f2cde/d/c/B/ | 
[V:2] A/G/F2B,C2 | 
[V:3] F,A,2B,G,2 | 
[V:4] D,2z2z2 | 
[V:1] !fermata!A4 ||  
[V:2] !fermata!D4 ||  
[V:3] !fermata!F,4 ||  
[V:4] !fermata!F,,4 ||  
[V:1] [M:2/2]c3B/A/ | 
[V:2] [M:2/2]C4 | 
[V:3] [M:2/2]z4 | 
[V:4] [M:2/2]z4 | 
[V:1] GA>GB- | 
[V:2] C2D2- | 
[V:3] z4 | 
[V:4] z4 | 
[V:1] B/A/G/F/G2 | 
[V:2] D2E2 | 
[V:3] z4 | 
[V:4] z4 | 
[V:1] F2z2 | 
[V:2] F3E/D/ | 
[V:3] z4 | 
[V:4] F,,4 | 
[V:1] z4 | 
[V:2] CD>C_E- | 
[V:3] z4 | 
[V:4] F,,2G,,2- | 
[V:1] z4 | 
[V:2] E/D/C/B,/C2 | 
[V:3] z4 | 
[V:4] G,,2A,,2 | 
[V:1] F4 | 
[V:2] B,2z2 | 
[V:3] z4 | 
[V:4] B,,3C, | 
[V:1] F2G2- | 
[V:2] z4 | 
[V:3] z4 | 
[V:4] D,2C,_E,- | 
[V:1] G2A2 | 
[V:2] z4 | 
[V:3] z4 | 
[V:4] E,/D,/C,/B,,/C,2 | 
[V:1] Bd2c/B/ | 
[V:2] F4 | 
[V:3] z4 | 
[V:4] B,,4 | 
[V:1] A2G2 | 
[V:2] F2G2- | 
[V:3] z4 | 
[V:4] D,2E,2 | 
[V:1] z2c2 | 
[V:2] G2A2 | 
[V:3] z4 | 
[V:4] C,3B,,/A,,/ | 
[V:1] d2Bc- | 
[V:2] B2GA- | 
[V:3] z4 | 
[V:4] G,,>A,,B,,A,, | 
[V:1] cAG2 | 
[V:2] A/G/F2E | 
[V:3] z4 | 
[V:4] F,,2C,3/E,/ | 
[V:1] Ff2e | 
[V:2] F2G2 | 
[V:3] z4 | 
[V:4] D,2C,2 | 
[V:1] f4 | 
[V:2] F2A2 | 
[V:3] z4 | 
[V:4] F,,2F,2 | 
[V:1] z2f2 | 
[V:2] A>Bdc- | 
[V:3] z4 | 
[V:4] F,3E, | 
[V:1] f3e | 
[V:2] cB2A | 
[V:3] z4 | 
[V:4] D,2C,2 | 
[V:1] d2cB | 
[V:2] B2z2 | 
[V:3] z4 | 
[V:4] B,,2A,,B,,- | 
[V:1] d>cA2 | 
[V:2] z2F2 | 
[V:3] z4 | 
[V:4] B,,A,,/G,,<F,,G,,/ | 
[V:1] z4 | 
[V:2] F3E | 
[V:3] z4 | 
[V:4] A,,B,,2C, | 
[V:1] z4 | 
[V:2] FG2F/E/ | 
[V:3] z4 | 
[V:4] A,,B,,G,,C,- | 
[V:1] z4 | 
[V:2] D2C2 | 
[V:3] z4 | 
[V:4] C,B,,A,,F,,- | 
[V:1] z2B2 | 
[V:2] DF2E | 
[V:3] z4 | 
[V:4] F,,A,,G,,2 | 
[V:1] A2B2- | 
[V:2] F2z2 | 
[V:3] z4 | 
[V:4] F,,F,G,3/F,/ | 
[V:1] Bc2A | 
[V:2] z4 | 
[V:3] z4 | 
[V:4] E,/D,/C,2F,- | 
[V:1] G2F2 | 
[V:2] B2A2 | 
[V:3] z4 | 
[V:4] F,E,F,2 | 
[V:1] f2ga- | 
[V:2] B3c- | 
[V:3] z4 | 
[V:4] zB,,2A,,- | 
[V:1] ag/f/e2 | 
[V:2] cAG2 | 
[V:3] z4 | 
[V:4] A,,B,,C,2 | 
[V:1] f2g2 | 
[V:2] F2E2 | 
[V:3] z4 | 
[V:4] A,,B,,G,,2 | 
[V:1] c2zB | 
[V:2] F2G2 | 
[V:3] z4 | 
[V:4] F,,2z2 | 
[V:1] _e2d2 | 
[V:2] C2zB, | 
[V:3] z4 | 
[V:4] z4 | 
[V:1] cg2f | 
[V:2] _E2D2 | 
[V:3] z4 | 
[V:4] z4 | 
[V:1] _ed>cB/A/ | 
[V:2] CG3 | 
[V:3] z4 | 
[V:4] z4 | 
[V:1] Gc2=B | 
[V:2] _ECD2 | 
[V:3] z4 | 
[V:4] z2G,,2 | 
[V:1] c4 | 
[V:2] C4 | 
[V:3] z4 | 
[V:4] A,,A,,2G,,/F,,/ | 
[V:1] z2G2 | 
[V:2] z4 | 
[V:3] z4 | 
[V:4] E,,F,,2E,, | 
[V:1] AA2G/F/ | 
[V:2] z4 | 
[V:3] z4 | 
[V:4] F,,F,2E,/D,/ | 
[V:1] EF2E | 
[V:2] z2G2 | 
[V:3] z4 | 
[V:4] C,B,,C,2 | 
[V:1] F2z2 | 
[V:2] AA2G/F/ | 
[V:3] z4 | 
[V:4] F,,>G,, A,,/B,,/C,- | 
[V:1] A2B2 | 
[V:2] EF2E | 
[V:3] z4 | 
[V:4] C,B,,/A,,/G,,2 | 
[V:1] A2Gc- | 
[V:2] F2z2 | 
[V:3] z4 | 
[V:4] F,,2z2 | 
[V:1] cA2G | 
[V:2] z4 | 
[V:3] z4 | 
[V:4] A,,2B,,2 | 
[V:1] A2z2 | 
[V:2] z4 | 
[V:3] z4 | 
[V:4] A,,2G,,C,- | 
[V:1] z2d2 | 
[V:2] A2B2 | 
[V:3] z4 | 
[V:4] C,A,,2G,, | 
[V:1] c2e2 | 
[V:2] A2Gc- | 
[V:3] z4 | 
[V:4] A,,2z2 | 
[V:1] f2g2 | 
[V:2] cB/A/ B/A/G/F/ | 
[V:3] z4 | 
[V:4] A,,2G,,2 | 
[V:1] zc2A | 
[V:2] E2F2 | 
[V:3] z4 | 
[V:4] C,2A,,2 | 
[V:1] B/A/G/F/E2 | 
[V:2] G4 | 
[V:3] z4 | 
[V:4] G,,2C,2 | 
[V:1] F4 | 
[V:2] F>ECD- | 
[V:3] z4 | 
[V:4] F,,>G,,A,,B,,- | 
[V:1] G4 | 
[V:2] D/C/DE2 | 
[V:3] z4 | 
[V:4] B,,/A,,/G,,/F,,/E,,2 | 
[V:1] F2z2 | 
[V:2] zAGB | 
[V:3] z4 | 
[V:4] F,,2G,,2 | 
[V:1] zAGB | 
[V:2] AFG2 | 
[V:3] z4 | 
[V:4] F,,2z2 | 
[V:1] AFG2 | 
[V:2] F2B2 | 
[V:3] z4 | 
[V:4] z4 | 
[V:1] F2z2 | 
[V:2] cd>cB/A/ | 
[V:3] z4 | 
[V:4] z4 | 
[V:1] B2cd- | 
[V:2] G2AB- | 
[V:3] z4 | 
[V:4] z4 | 
[V:1] d/c/B/A/G2 | 
[V:2] B/A/G/F/E2 | 
[V:3] z4 | 
[V:4] z2C,2 | 
[V:1] F2c2 | 
[V:2] F2z2 | 
[V:3] z4 | 
[V:4] D,F,E,C, | 
[V:1] f2ec | 
[V:2] z2C2 | 
[V:3] z4 | 
[V:4] D,2C,2 | 
[V:1] d/c/B/A/Gc- | 
[V:2] F2GE | 
[V:3] z4 | 
[V:4] zB,,2C, | 
[V:1] c=Bc2 | 
[V:2] D2C2 | 
[V:3] z4 | 
[V:4] G,,2G,E, | 
[V:1] AB2A- | 
[V:2] zF2E- | 
[V:3] z4 | 
[V:4] F,D,2C, | 
[V:1] AGA2 | 
[V:2] EDEF- | 
[V:3] z4 | 
[V:4] B,,2A,,2 | 
[V:1] B2AF | 
[V:2] FEF2 | 
[V:3] z4 | 
[V:4] G,,2F,,2 | 
[V:1] G2FF- | 
[V:2] z2A2 | 
[V:3] z4 | 
[V:4] B,,2A,,F,, | 
[V:1] FEFA | 
[V:2] B2AF | 
[V:3] z4 | 
[V:4] G,,2F,,F, | 
[V:1] Gc2=B | 
[V:2] E2z2 | 
[V:3] z4 | 
[V:4] G,E,D,2 | 
[V:1] cdcf- | 
[V:2] zBcA | 
[V:3] z4 | 
[V:4] C,B,,A,,F,, | 
[V:1] fef2 | 
[V:2] G2A2 | 
[V:3] z4 | 
[V:4] C,2F,,2 | 
[V:1] ga2g/f/ | 
[V:2] GFA3/B/ | 
[V:3] z4 | 
[V:4] E,,F,,F,2 | 
[V:1] e2ze | 
[V:2] c2zc | 
[V:3] z4 | 
[V:4] C,2zC, | 
[V:1] fd2e | 
[V:2] ABG2 | 
[V:3] z4 | 
[V:4] D,B,,2C, | 
[V:1] cdB2 | 
[V:2] AFGE- | 
[V:3] z4 | 
[V:4] A,,B,,G,,2 | 
[V:1] cABG- | 
[V:2] EFDE | 
[V:3] z4 | 
[V:4] A,,F,,B,,C,- | 
[V:1] GABc | 
[V:2] C2DE | 
[V:3] z4 | 
[V:4] C,A,,G,,C, | 
[V:1] A2Bc | 
[V:2] FD2E | 
[V:3] z4 | 
[V:4] F,,2B,,A,, | 
[V:1] dB2c | 
[V:2] FGE2 | 
[V:3] z4 | 
[V:4] F,,B,,G,,C, | 
[V:1] dec2 | 
[V:2] FGAF- | 
[V:3] z4 | 
[V:4] F,,E,,F,,2 | 
[V:1] def3/g/ | 
[V:2] FGAB | 
[V:3] z4 | 
[V:4] A,G,F,2 | 
[V:1] !fermata!e4 ||  
[V:2] !fermata!c4 ||  
[V:3] z4 ||  
[V:4] !fermata!E,4 ||  
[V:1] c4- | 
[V:2] A4- | 
[V:3] F,4- | 
[V:4] F,,4- | 
[V:1] c4- | 
[V:2] A4 | 
[V:3] F,4 | 
[V:4] F,,4 | 
[V:1] c4 | 
[V:2] A2c2 | 
[V:3] A,4 | 
[V:4] F,3A, | 
[V:1] d2c2 | 
[V:2] B2G2 | 
[V:3] B,2C2- | 
[V:4] G,2E,2 | 
[V:1] f4 | 
[V:2] F4 | 
[V:3] C2=B,2 | 
[V:4] D,4 | 
[V:1] e4 | 
[V:2] G4 | 
[V:3] C4- | 
[V:4] C,4 | 
[V:1] e2e2 | 
[V:2] G2G2 | 
[V:3] C4 | 
[V:4] C,2C,2 | 
[V:1] e2ff- | 
[V:2] A2A2 | 
[V:3] z4 | 
[V:4] A,,2F,,2 | 
[V:1] f/e/d/c/d2 | 
[V:2] B2B2 | 
[V:3] z4 | 
[V:4] G,,4 | 
[V:1] c4 | 
[V:2] c3A- | 
[V:3] C4- | 
[V:4] A,,2A,,2 | 
[V:1] z4 | 
[V:2] AF2G- | 
[V:3] C2B,2- | 
[V:4] A,,2B,,B,,- | 
[V:1] g2g2 | 
[V:2] G/F/E/D/E2 | 
[V:3] B,4 | 
[V:4] B,,/A,,/G,,/F,,/G,,2 | 
[V:1] a3g | 
[V:2] F4 | 
[V:3] A,4 | 
[V:4] F,,4 | 
[V:1] e2fg- | 
[V:2] z4 | 
[V:3] G,2A,B,- | 
[V:4] C,2z_E,- | 
[V:1] gf2e | 
[V:2] z2c2 | 
[V:3] B,A,G,2 | 
[V:4] E,F,C,2 | 
[V:1] f4 | 
[V:2] c3d- | 
[V:3] F,4- | 
[V:4] F,,>G,,A,,B,,- | 
[V:1] z4 | 
[V:2] dc/B/Ad- | 
[V:3] F,4- | 
[V:4] B,,A,,/G,,/F,,B,,- | 
[V:1] f2f2 | 
[V:2] dc2=B | 
[V:3] F,4 | 
[V:4] B,,C,D,2 | 
[V:1] e3d/c/ | 
[V:2] c2C2- | 
[V:3] G,4- | 
[V:4] C,2z2 | 
[V:1] ed2c- | 
[V:2] CB,C2 | 
[V:3] G,4 | 
[V:4] z4 | 
[V:1] c=Bce- | 
[V:2] D2C2 | 
[V:3] G,4- | 
[V:4] G,,2C,2 | 
[V:1] e/d/c/=B/c2 | 
[V:2] E4 | 
[V:3] G,4 | 
[V:4] C,2C,2 | 
[V:1] d2f2 | 
[V:2] D4 | 
[V:3] A,4 | 
[V:4] F,3G, | 
[V:1] f2c2 | 
[V:2] z4 | 
[V:3] F,4 | 
[V:4] A,4 | 
[V:1] c2d2- | 
[V:2] z4 | 
[V:3] F,4 | 
[V:4] F,2D,2- | 
[V:1] dc/B/A2 | 
[V:2] d4 | 
[V:3] D,4 | 
[V:4] D,E,F,2 | 
[V:1] G2c2- | 
[V:2] B2A2 | 
[V:3] E,4 | 
[V:4] G,2C,2 | 
[V:1] c2=B2 | 
[V:2] G4 | 
[V:3] D,4 | 
[V:4] G,,4 | 
[V:1] c4 | 
[V:2] E2Cc- | 
[V:3] C,4- | 
[V:4] A,,4- | 
[V:1] z4 | 
[V:2] c/B/A/G/F2 | 
[V:3] C,4 | 
[V:4] A,,2A,,2 | 
[V:1] B2c2 | 
[V:2] G4 | 
[V:3] D,2E,2- | 
[V:4] G,,2C,2- | 
[V:1] G2A2 | 
[V:2] z2zC | 
[V:3] E,4 | 
[V:4] C,2C,2 | 
[V:1] B>AFA- | 
[V:2] D>EF2 | 
[V:3] F,4- | 
[V:4] B,,>C,D,3/E,/ | 
[V:1] ABc2 | 
[V:2] D2E2 | 
[V:3] F,2G,2- | 
[V:4] F,2C,2 | 
[V:1] defg- | 
[V:2] DCzc- | 
[V:3] G,2F,E, | 
[V:4] zC,D,C, | 
[V:1] gf2e | 
[V:2] cBc2 | 
[V:3] F,2G,2 | 
[V:4] D,2C,2 | 
[V:1] f3e | 
[V:2] A4 | 
[V:3] F,4 | 
[V:4] D,4 | 
[V:1] c2d2 | 
[V:2] G2A2 | 
[V:3] G,2F,2 | 
[V:4] E,2D,2 | 
[V:1] cAG2 | 
[V:2] G2C2 | 
[V:3] G,4 | 
[V:4] E,4 | 
[V:1] F2zf | 
[V:2] z2D2 | 
[V:3] A,2B,2- | 
[V:4] F,2D,2 | 
[V:1] g/f/e/d/e2 | 
[V:2] E4 | 
[V:3] B,2A,2 | 
[V:4] C,4 | 
[V:1] d4 | 
[V:2] F3G | 
[V:3] B,4 | 
[V:4] B,,4 | 
[V:1] c2f2- | 
[V:2] ABc2- | 
[V:3] C2A,2 | 
[V:4] A,,2F,,2 | 
[V:1] f2e2 | 
[V:2] c2c2 | 
[V:3] G,4 | 
[V:4] C,2C,2 | 
[V:1] f2z2 | 
[V:2] A2F2 | 
[V:3] F,4 | 
[V:4] D,D,2C,/B,,/ | 
[V:1] e2c2 | 
[V:2] c2c2 | 
[V:3] z4 | 
[V:4] A,,4 | 
[V:1] f2f3/g/ | 
[V:2] dd2c/B/ | 
[V:3] z4 | 
[V:4] z4 | 
[V:1] a3g | 
[V:2] A4 | 
[V:3] z4 | 
[V:4] A,,4- | 
[V:1] e2f2 | 
[V:2] c2c2 | 
[V:3] z4 | 
[V:4] A,,2A,,2 | 
[V:1] g2ef | 
[V:2] B>AGF | 
[V:3] z4 | 
[V:4] G,,3A,, | 
[V:1] de2d- | 
[V:2] G2EF | 
[V:3] z4 | 
[V:4] B,,C,2B,, | 
[V:1] dc2=B | 
[V:2] CED2 | 
[V:3] z4 | 
[V:4] A,,C,G,,2 | 
[V:1] c2zA | 
[V:2] C>B,CD- | 
[V:3] z4 | 
[V:4] A,,F,,>E,,F,, | 
[V:1] GB2A | 
[V:2] D/C/DE3/D/ | 
[V:3] z4 | 
[V:4] G,,>F,,G,,A,,- | 
[V:1] c2Bd- | 
[V:2] EF>EF | 
[V:3] z4 | 
[V:4] A,,/G,,/A,,B,,3/A,,/ | 
[V:1] dce2 | 
[V:2] G>FGA- | 
[V:3] z4 | 
[V:4] B,,C,3 | 
[V:1] fde/d/c/B/ | 
[V:2] AF2E | 
[V:3] z4 | 
[V:4] A,,B,,G,,2 | 
[V:1] A4 | 
[V:2] F>GAB | 
[V:3] z4 | 
[V:4] F,,4 | 
[V:1] z2d2- | 
[V:2] c2B2- | 
[V:3] F,4- | 
[V:4] A,,2B,,2- | 
[V:1] d2d2 | 
[V:2] B2A2 | 
[V:3] F,4 | 
[V:4] B,,C,D,2 | 
[V:1] B>cd_e | 
[V:2] G>FDC | 
[V:3] G,4- | 
[V:4] G,,>A,,B,,C,- | 
[V:1] d2c2- | 
[V:2] D2E2 | 
[V:3] G,4 | 
[V:4] C,=B,,C,2 | 
[V:1] c2f2- | 
[V:2] F3D | 
[V:3] A,4- | 
[V:4] F,,4- | 
[V:1] f2f2 | 
[V:2] C2D2 | 
[V:3] A,4 | 
[V:4] F,,4 | 
[V:1] g2g2 | 
[V:2] _E3D | 
[V:3] B,4 | 
[V:4] _E,,4 | 
[V:1] f>ecd- | 
[V:2] C2A,2 | 
[V:3] A,4 | 
[V:4] F,,4 | 
[V:1] d/c/B/A/B2 | 
[V:2] B,3C | 
[V:3] G,4 | 
[V:4] G,,4 | 
[V:1] A4 | 
[V:2] D3E | 
[V:3] A,4- | 
[V:4] D,,4 | 
[V:1] z2f2 | 
[V:2] F4 | 
[V:3] A,4 | 
[V:4] D,4 | 
[V:1] e3f | 
[V:2] G4- | 
[V:3] C4 | 
[V:4] C,3B,,/A,,/ | 
[V:1] g2ab- | 
[V:2] G4- | 
[V:3] B,4- | 
[V:4] G,,4 | 
[V:1] b/a/g/f/g2 | 
[V:2] G4 | 
[V:3] B,4 | 
[V:4] z4 | 
[V:1] a3g | 
[V:2] D4 | 
[V:3] A,4- | 
[V:4] D,>E,F,3/E,/ | 
[V:1] ef>ef | 
[V:2] z2d2 | 
[V:3] A,4 | 
[V:4] C,D,>C,D, | 
[V:1] g3a | 
[V:2] B2c2 | 
[V:3] G,4- | 
[V:4] _E,>D,C,B,,/A,,/ | 
[V:1] b3c' | 
[V:2] d2B2 | 
[V:3] G,4 | 
[V:4] G,,4 | 
[V:1] a3g | 
[V:2] c2A2- | 
[V:3] F,4- | 
[V:4] z2D,2- | 
[V:1] fe/d<cd/ | 
[V:2] ABc2- | 
[V:3] F,4 | 
[V:4] D,C,/B,,/A,,F,, | 
[V:1] ef2e | 
[V:2] cBG2 | 
[V:3] G,4 | 
[V:4] C,2C,2 | 
[V:1] f4 | 
[V:2] F3E | 
[V:3] A,4- | 
[V:4] F,,4 | 
[V:1] z4 | 
[V:2] CD2C/B,/ | 
[V:3] A,4- | 
[V:4] z4 | 
[V:1] c>def- | 
[V:2] A,2z2 | 
[V:3] A,4- | 
[V:4] A,,>B,,C,D,- | 
[V:1] fec2 | 
[V:2] z2A3/B/ | 
[V:3] A,4 | 
[V:4] D,C,A,,3/G,,/ | 
[V:1] z4 | 
[V:2] cd2c/B/ | 
[V:3] z4 | 
[V:4] A,,B,,2A,,/G,,/ | 
[V:1] c3d- | 
[V:2] A2AB- | 
[V:3] z4 | 
[V:4] F,,2z2 | 
[V:1] d/c/cB2 | 
[V:2] BA2G | 
[V:3] z4 | 
[V:4] z4 | 
[V:1] A2z2 | 
[V:2] A>Bc2 | 
[V:3] A,4 | 
[V:4] F,,>G,, A,,/B,,/C,- | 
[V:1] z4 | 
[V:2] CD2E- | 
[V:3] G,4 | 
[V:4] C,B,,2C,- | 
[V:1] z4 | 
[V:2] EF2F | 
[V:3] A,4 | 
[V:4] C,/B,,/A,,/G,,/F,,2 | 
[V:1] g2gg | 
[V:2] D2_E2 | 
[V:3] B,4 | 
[V:4] G,,2_E,,2 | 
[V:1] a3g | 
[V:2] Cc2A | 
[V:3] A,4 | 
[V:4] F,,4 | 
[V:1] e>fg2 | 
[V:2] B/A/G/F<ED/ | 
[V:3] G,4 | 
[V:4] z4 | 
[V:1] c2d2- | 
[V:2] F4 | 
[V:3] F,4 | 
[V:4] F,,2B,,2- | 
[V:1] dde2 | 
[V:2] B2G2 | 
[V:3] G,4 | 
[V:4] B,,2C,2 | 
[V:1] c2f2- | 
[V:2] c4 | 
[V:3] A,4 | 
[V:4] A,,2F,,2- | 
[V:1] fed2- | 
[V:2] A2F2 | 
[V:3] F,4 | 
[V:4] F,,2B,,2- | 
[V:1] dcc2- | 
[V:2] B2G2- | 
[V:3] G,2E,2 | 
[V:4] B,,2C,2 | 
[V:1] c2=B2 | 
[V:2] G4 | 
[V:3] D,4 | 
[V:4] G,,4 | 
[V:1] c4 | 
[V:2] G2GA- | 
[V:3] C,4- | 
[V:4] z4 | 
[V:1] z2g2 | 
[V:2] AGE2 | 
[V:3] C,4- | 
[V:4] z4 | 
[V:1] ga2g | 
[V:2] z2zG | 
[V:3] C,4- | 
[V:4] z4 | 
[V:1] e2zg | 
[V:2] GGE2 | 
[V:3] C,4 | 
[V:4] z4 | 
[V:1] gge2 | 
[V:2] C2zc- | 
[V:3] z4 | 
[V:4] zC,C,C, | 
[V:1] c2zc- | 
[V:2] ccAF | 
[V:3] z4 | 
[V:4] A,,2F,,2 | 
[V:1] ccAF | 
[V:2] A>Bc2 | 
[V:3] z4 | 
[V:4] zF,F,F, | 
[V:1] A>Bc2 | 
[V:2] AFG3/A/ | 
[V:3] z4 | 
[V:4] F,>E,C,2 | 
[V:1] [M:3/2]d4d2 | 
[V:2] [M:3/2]B4F2- | 
[V:3] [M:3/2]F,6- | 
[V:4] [M:3/2]B,,6 | 
[V:1] d2B2c2 | 
[V:2] F2D2C2 | 
[V:3] F,6 | 
[V:4] B,,4A,,2 | 
[V:1] B2>c2d2 | 
[V:2] D4D2 | 
[V:3] G,6- | 
[V:4] G,,4B,,2 | 
[V:1] e4f2 | 
[V:2] C4F2- | 
[V:3] G,2A,4 | 
[V:4] C,4A,,2 | 
[V:1] g4c2 | 
[V:2] FDE2F2 | 
[V:3] B,4A,2 | 
[V:4] G,,4F,,2- | 
[V:1] f4e2 | 
[V:2] c4c2 | 
[V:3] F,2G,4 | 
[V:4] F,,2C,4 | 
[V:1] f4f2 | 
[V:2] A2>B2c2 | 
[V:3] F,4z2 | 
[V:4] F,,6 | 
[V:1] d2g4 | 
[V:2] B2G4 | 
[V:3] B,4G,2 | 
[V:4] G,,2E,,4 | 
[V:1] c4c2 | 
[V:2] F4E2 | 
[V:3] A,4G,2 | 
[V:4] F,,4C,2- | 
[V:1] c2f4 | 
[V:2] G4F2 | 
[V:3] C4B,2 | 
[V:4] C,2D,4 | 
[V:1] e4d2 | 
[V:2] G2>A2Bc | 
[V:3] C4B,2 | 
[V:4] C,4G,,2- | 
[V:1] g4f2 | 
[V:2] d6 | 
[V:3] G,2A,4 | 
[V:4] G,,2D,4 | 
[V:1] e2d3c | 
[V:2] B6 | 
[V:3] G,2F,2G,2 | 
[V:4] G,,2B,,4 | 
[V:1] c4=B2 | 
[V:2] G4z2 | 
[V:3] E,2D,4 | 
[V:4] C,2G,,4 | 
[V:1] c6 | 
[V:2] E2>F2G2 | 
[V:3] C,4z2 | 
[V:4] A,,2>G,,2E,,2 | 
[V:1] z6 | 
[V:2] F4G2 | 
[V:3] C,2>D,2E,2 | 
[V:4] F,,2A,,2G,,2 | 
[V:1] c2>d2e2 | 
[V:2] A4G2 | 
[V:3] F,4G,2 | 
[V:4] F,,4C,2 | 
[V:1] f4g2 | 
[V:2] F4C2 | 
[V:3] A,4G,2 | 
[V:4] F,,2F,2E,2 | 
[V:1] a2a2b2 | 
[V:2] c4z2 | 
[V:3] F,2C2D2 | 
[V:4] F,2C,2B,,2 | 
[V:1] a2g3f | 
[V:2] z2G3A | 
[V:3] C2B,3A, | 
[V:4] C,2_E,3F, | 
[V:1] f4e2 | 
[V:2] B2c4 | 
[V:3] F,2G,4 | 
[V:4] D,2C,4 | 
[V:1] f6 |]  
[V:2] c6 |]  
[V:3] F,6 |]  
[V:4] F,,6 |]  


